src/assets/img/advocates/cloudflare.svg

<svg width="68" height="68" viewBox="0 0 68 68" fill="none" xmlns="http://www.w3.org/2000/svg">
<rect width="68" height="68" fill="white"/>
<path d="M44.2308 45.9493L44.5059 44.9588C44.8471 43.7813 44.7205 42.6918 44.1483 41.8912C43.857 41.5115 43.482 41.204 43.0526 40.9926C42.6232 40.7812 42.1508 40.6717 41.6722 40.6724L21.4921 40.4138C21.4296 40.412 21.3684 40.396 21.313 40.3669C21.2577 40.3378 21.2098 40.2964 21.1729 40.246C21.1384 40.1923 21.1167 40.1313 21.1095 40.0679C21.1024 40.0044 21.1099 39.9401 21.1317 39.8801C21.1677 39.7823 21.2308 39.6968 21.3136 39.6334C21.3964 39.5701 21.4955 39.5316 21.5994 39.5224L41.9583 39.2638C44.3739 39.1538 46.9903 37.1922 47.9064 34.8014L49.0674 31.775C49.0985 31.6924 49.1134 31.6046 49.1115 31.5164C49.1122 31.4684 49.1076 31.4204 49.0977 31.3733C48.4673 28.5498 46.9309 26.0098 44.7229 24.1405C42.5148 22.2712 39.7561 21.1751 36.8672 21.0193C33.9783 20.8634 31.1177 21.6564 28.7214 23.2774C26.3251 24.8984 24.5245 27.2584 23.594 29.9977C22.7486 29.3646 21.7504 28.9671 20.7012 28.8459C19.652 28.7248 18.5894 28.8843 17.622 29.3081C16.6545 29.7319 15.817 30.4049 15.1947 31.2584C14.5725 32.1118 14.1879 33.1151 14.0803 34.1658C14.01 34.8655 14.0621 35.5722 14.2344 36.254C12.0285 36.3184 9.93454 37.24 8.3971 38.8232C6.85966 40.4063 5.99978 42.5264 6 44.7332C5.99998 45.1438 6.0294 45.5539 6.08804 45.9603C6.09981 46.0609 6.14973 46.1533 6.22752 46.2183C6.30531 46.2833 6.40505 46.316 6.50622 46.3097H43.7714C43.8764 46.3065 43.9776 46.2697 44.0603 46.2049C44.1429 46.1401 44.2027 46.0505 44.2308 45.9493Z" fill="#F78100"/>
<path d="M50.9547 32.0034C50.7676 32.0034 50.5805 32.0034 50.4045 32.0034C50.3754 32.0069 50.3469 32.0134 50.3192 32.0227C50.2702 32.0389 50.226 32.067 50.1905 32.1045C50.155 32.1419 50.1293 32.1875 50.1156 32.2373L49.3205 34.9885C48.9793 36.166 49.1086 37.2555 49.6809 38.0533C49.9716 38.4339 50.3464 38.7422 50.7759 38.9541C51.2054 39.1659 51.6781 39.2757 52.157 39.2749L56.4571 39.5335C56.5177 39.5356 56.577 39.5516 56.6304 39.5802C56.6838 39.6088 56.7299 39.6493 56.7653 39.6986C56.8009 39.7523 56.8234 39.8136 56.8311 39.8777C56.8387 39.9417 56.8313 40.0066 56.8093 40.0672C56.7732 40.165 56.7101 40.2505 56.6273 40.3139C56.5445 40.3772 56.4454 40.4157 56.3416 40.4249L51.8736 40.6835C49.447 40.7935 46.8306 42.7524 45.9145 45.1432L45.5926 45.9878C45.5791 46.0231 45.5741 46.0612 45.5781 46.0988C45.5821 46.1364 45.595 46.1725 45.6157 46.2042C45.6364 46.2359 45.6642 46.2622 45.697 46.281C45.7299 46.2998 45.7667 46.3106 45.8044 46.3125H61.1947C61.2842 46.3137 61.3717 46.2856 61.4437 46.2324C61.5158 46.1793 61.5684 46.104 61.5936 46.0181C62.0515 44.3769 62.1236 42.652 61.8041 40.9784C61.4846 39.3047 60.7823 37.7277 59.7521 36.3706C58.7218 35.0135 57.3916 33.9131 55.8655 33.1554C54.3393 32.3978 52.6586 32.0035 50.9547 32.0034Z" fill="#FCAD32"/>
</svg>

<svg xmlns="http://www.w3.org/2000/svg" width="68" height="68" fill="none"><path fill="#fff" d="M0 0h68v68H0z"/><path fill="#F78100" d="m44.23 45.95.276-.991c.341-1.178.215-2.267-.358-3.068a3.12 3.12 0 0 0-2.476-1.219l-20.18-.258a.41.41 0 0 1-.32-.168.42.42 0 0 1-.04-.366.55.55 0 0 1 .467-.358l20.36-.258c2.415-.11 5.031-2.072 5.947-4.463l1.161-3.026a.7.7 0 0 0 .044-.259.7.7 0 0 0-.013-.143 13.264 13.264 0 0 0-25.504-1.375 5.969 5.969 0 0 0-9.36 6.256 8.482 8.482 0 0 0-8.146 9.706.396.396 0 0 0 .418.35h37.265a.49.49 0 0 0 .46-.36"/><path fill="#FCAD32" d="M50.955 32.003h-.55a.4.4 0 0 0-.086.02.31.31 0 0 0-.203.214l-.795 2.752c-.342 1.177-.212 2.267.36 3.064a3.11 3.11 0 0 0 2.476 1.222l4.3.258a.4.4 0 0 1 .308.166.41.41 0 0 1 .044.368.55.55 0 0 1-.467.358l-4.468.259c-2.427.11-5.043 2.068-5.96 4.46l-.321.844a.24.24 0 0 0 .211.325h15.39a.41.41 0 0 0 .4-.295 11.046 11.046 0 0 0-10.64-14.015"/></svg>
